X: 18691
T: I'm Sleeping And Don't Waken Me
R: waltz
M: 3/4
K: Fmajor
FG/A/|B2B2B2|A2A2A2|FA/c/ BA GF|D4 C2|
C2D2 F>G|A2c2 (3dcB|A4G2|F4:|
cd|_e4 e2|d4 cA|c2d2f2|f2 dc A2|
_e2 e2e2|d4 cA|F2 FG AF|G2F2 F/A/c/d/|
_e2 ef gf|_e2 dc fd/c/|B2 AF GD|F2D2C2|
D2F2F2|AB c2 f/d/c/B/|A4 G2|F4||

